build/img/sprite_auto.svg

<svg xmlns="http://www.w3.org/2000/svg" xmlns:xlink="http://www.w3.org/1999/xlink"><defs>
<clipPath id="clip0">
<rect x="9" y="18" width="12" height="7.4" transform="rotate(-90 9 18)" fill="white"/>
</clipPath>
</defs><symbol id="icon-arrow-down" viewBox="0 0 25 25">
<g clip-path="url(#clip0)">
<path fill-rule="evenodd" clip-rule="evenodd" d="M9 7.4L13.6 12L9 16.6L10.4 18L16.4 12L10.4 6L9 7.4Z" fill="#2C2E3F" fill-opacity="0.5"/>
</g>

</symbol><symbol id="icon-arrow" viewBox="0 0 8 12">
<path fill-rule="evenodd" clip-rule="evenodd" d="M0 1.4L4.6 6L0 10.6L1.4 12L7.4 6L1.4 0L0 1.4Z" fill="#2C2E3F" fill-opacity="0.5"/>
</symbol><symbol id="icon-ellipse-big" viewBox="0 0 127 127">
<circle cx="63.5" cy="63.5" r="54.5" stroke="#0AD9C6" stroke-width="18"/>
</symbol><symbol id="icon-ellipse-small" viewBox="0 0 68 68">
<circle cx="34" cy="34" r="27.5" stroke="#0AD9C6" stroke-width="13"/>
</symbol><symbol id="icon-email" viewBox="0 0 26 21">
<path d="M24.2273 0.117676H1.77273C0.768182 0.117676 0 0.882382 0 1.88238V18.353C0 19.353 0.768182 20.1177 1.77273 20.1177H24.2273C25.2318 20.1177 26 19.353 26 18.353V1.88238C26 0.882382 25.2318 0.117676 24.2273 0.117676ZM24.2273 17.1177L19.5591 12.4706C19.2045 12.1177 18.6727 12.1177 18.3182 12.4706C17.9636 12.8236 17.9636 13.353 18.3182 13.7059L22.9864 18.353H3.01362L7.68182 13.7059C8.03636 13.353 8.03636 12.8236 7.68182 12.4706C7.32727 12.1177 6.79547 12.1177 6.44092 12.4706L1.77273 17.1177V5.82353L12.4091 13.8236C12.5864 13.9412 12.7636 14 12.9409 14C13.1182 14 13.2954 13.9412 13.4727 13.8236L24.2273 5.82353V17.1177ZM24.2273 1.88238V3.58828L12.9409 11.9412L1.77273 3.58828V1.88238H24.2273Z" fill="#0AD9C6"/>
</symbol><symbol id="icon-menu-close" viewBox="0 0 50 52">
<rect width="50" height="52" fill="white"/>
</symbol><symbol id="icon-menu-open" viewBox="0 0 19.958 14">
  <rect fill="#231F20" width="19.958" height="2"/>
  <rect y="6" fill="#231F20" width="19.958" height="2"/>
  <rect y="12" fill="#231F20" width="19.958" height="2"/>
</symbol><symbol id="icon-phone" viewBox="0 0 22 24">
<path d="M3.45616 6.74199C3.37161 5.54391 3.63734 4.36374 4.34096 3.41452C4.95096 2.554 5.74517 2.08404 6.70245 1.8094C7.50874 1.57018 8.03721 1.86329 8.26974 2.75972C8.60192 4.09991 9.07604 5.44018 9.24817 6.85129C9.30253 7.47252 8.90089 8.35089 8.46604 8.80328C7.37589 9.87655 7.60238 10.6576 8.42982 12.282C8.6865 12.8057 9.09418 13.7111 9.88839 14.9096C10.7158 16.1169 11.1537 16.7649 12.2167 16.2152C13.3974 15.6212 14.2581 16.0032 15.1489 16.9621C15.7529 17.6546 16.4172 18.2495 17.0212 18.942C17.8939 19.9718 17.8547 20.6818 17.1722 21.4091C15.9431 22.7486 13.9138 23.1913 12.4039 22.2943C11.5705 21.8058 10.74 21.1664 10.0787 20.4206C7.16453 17.1002 5.06272 13.2388 3.79741 8.88089C3.59508 8.14421 3.50146 7.39872 3.45616 6.74199Z" stroke="#0AD9C6" stroke-width="2" stroke-miterlimit="10"/>
</symbol><symbol id="icon-play" viewBox="0 0 91 91">
<path fill-rule="evenodd" clip-rule="evenodd" d="M45.1788 90.3576C70.1303 90.3576 90.3576 70.1303 90.3576 45.1788C90.3576 20.2272 70.1303 0 45.1788 0C20.2272 0 0 20.2272 0 45.1788C0 70.1303 20.2272 90.3576 45.1788 90.3576Z" fill="#0AD9C6"/>
</symbol><symbol id="icon-rectangle-black" viewBox="0 0 37 37">
<rect width="37" height="37" fill="#131314"/>
</symbol><symbol id="icon-rectangle" viewBox="0 0 47 47">
<rect x="4" y="4" width="39" height="39" stroke="#0AD9C6" stroke-width="8"/>
</symbol></svg>

<svg xmlns="http://www.w3.org/2000/svg" xmlns:xlink="http://www.w3.org/1999/xlink"><defs><clipPath id="clip0"><path transform="rotate(-90 9 18)" fill="#fff" d="M9 18h12v7.4H9z"/></clipPath></defs><symbol id="icon-arrow-down"><g clip-path="url(#clip0)"><path fill-rule="evenodd" clip-rule="evenodd" d="M9 7.4l4.6 4.6L9 16.6l1.4 1.4 6-6-6-6L9 7.4z" fill="#2C2E3F" fill-opacity=".5"/></g></symbol><symbol id="icon-arrow"><path fill-rule="evenodd" clip-rule="evenodd" d="M0 1.4L4.6 6 0 10.6 1.4 12l6-6-6-6L0 1.4z" fill="#2C2E3F" fill-opacity=".5"/></symbol><symbol id="icon-ellipse-big"><circle cx="63.5" cy="63.5" r="54.5" stroke="#0AD9C6" stroke-width="18"/></symbol><symbol id="icon-ellipse-small"><circle cx="34" cy="34" r="27.5" stroke="#0AD9C6" stroke-width="13"/></symbol><symbol id="icon-email"><path d="M24.227.118H1.773C.768.118 0 .882 0 1.882v16.471c0 1 .768 1.765 1.773 1.765h22.454c1.005 0 1.773-.765 1.773-1.765V1.883c0-1-.768-1.765-1.773-1.765zm0 17L19.56 12.47a.86.86 0 00-1.24 0 .85.85 0 000 1.235l4.667 4.647H3.014l4.668-4.647a.85.85 0 000-1.235.86.86 0 00-1.241 0l-4.668 4.647V5.824l10.636 8a.956.956 0 00.532.176.956.956 0 00.532-.176l10.754-8v11.294zm0-15.236v1.706l-11.286 8.353L1.773 3.588V1.882h22.454z" fill="#0AD9C6"/></symbol><symbol id="icon-menu-close"><path fill="#fff" d="M0 0h50v52H0z"/></symbol><symbol id="icon-menu-open"><path fill="#231F20" d="M0 0h19.958v2H0zm0 6h19.958v2H0zm0 6h19.958v2H0z"/></symbol><symbol id="icon-phone"><path d="M3.456 6.742c-.084-1.198.181-2.378.885-3.327.61-.861 1.404-1.331 2.361-1.606.807-.239 1.335.054 1.568.95.332 1.34.806 2.681.978 4.092.055.622-.347 1.5-.782 1.952-1.09 1.074-.864 1.855-.036 3.479.257.524.664 1.43 1.458 2.628.828 1.207 1.266 1.855 2.329 1.305 1.18-.594 2.041-.212 2.932.747.604.693 1.268 1.288 1.872 1.98.873 1.03.834 1.74.151 2.467-1.229 1.34-3.258 1.782-4.768.885-.834-.488-1.664-1.128-2.325-1.873-2.914-3.32-5.016-7.182-6.282-11.54a10.989 10.989 0 01-.34-2.139z" stroke="#0AD9C6" stroke-width="2" stroke-miterlimit="10"/></symbol><symbol id="icon-play"><path fill-rule="evenodd" clip-rule="evenodd" d="M45.179 90.358c24.951 0 45.179-20.228 45.179-45.18C90.358 20.229 70.13 0 45.178 0 20.229 0 0 20.227 0 45.179 0 70.13 20.227 90.358 45.179 90.358z" fill="#0AD9C6"/></symbol><symbol id="icon-rectangle-black"><path fill="#131314" d="M0 0h37v37H0z"/></symbol><symbol id="icon-rectangle"><path stroke="#0AD9C6" stroke-width="8" d="M4 4h39v39H4z"/></symbol></svg>
